src/actions/22/go-jump-declaration.svg

<svg xmlns="http://www.w3.org/2000/svg" viewBox="0 0 22 22">
  <defs id="defs3051">
    <style type="text/css" id="current-color-scheme">
      .ColorScheme-Text {
        color:#2e3440;
      }
      </style>
  </defs>
 <path 
    style="fill:currentColor;fill-opacity:1;stroke:none" 
    d="M 3 3 L 3 19 L 4 19 L 4 11 L 9 11 L 9 12 L 14 12 L 14 5 L 9 5 L 9 4 L 4 4 L 4 3 L 3 3 z M 17 6 L 16 7 L 15 8 L 17 10 L 17 8.7148438 C 17.624415 9.6579187 18 10.778652 18 12 C 18 15.324 15.324 18 12 18 L 12 19 C 15.878 19 19 15.878 19 12 C 19 10.090887 18.232299 8.3761254 17 7.1171875 L 17 6 z "
    class="ColorScheme-Text"
    />  
</svg>

<svg viewBox="0 0 22 22" xmlns="http://www.w3.org/2000/svg">
 <defs>
  <style type="text/css">.ColorScheme-Text {
        color:#2e3440;
      }</style>
 </defs>
 <path class="ColorScheme-Text" d="m3 3v16h1v-8h5v1h5v-7h-5v-1h-5v-1h-1zm14 3-2 2 2 2v-1.2852c0.62442 0.94307 1 2.0638 1 3.2852 0 3.324-2.676 6-6 6v1c3.878 0 7-3.122 7-7 0-1.9091-0.7677-3.6239-2-4.8828v-1.1172z" fill="currentColor"/>
</svg>
